frontend/public/svg/interface/folder-empty.svg

<svg width="180" height="141" viewBox="0 0 180 141" fill="none" xmlns="http://www.w3.org/2000/svg">
<g clip-path="url(#clip0)">
<path d="M156.96 0.381836C159.703 0.684628 162.453 0.940059 165.189 1.29938C174.067 2.46897 178.4 7.35699 178.83 16.3608C179.613 32.7597 178.758 49.1215 178.153 65.5031C177.744 76.5557 178.271 87.6408 178.214 98.7102C178.178 105.346 178.177 112.016 177.538 118.61C176.171 132.687 168.11 140.015 153.925 140.475C149.274 140.626 144.611 140.461 139.954 140.44C127.761 140.383 115.569 140.324 103.376 140.264C83.8624 140.146 64.348 140.078 44.8358 139.814C41.0693 139.681 37.3232 139.199 33.6457 138.373C28.0149 137.228 23.9946 133.594 20.9075 128.976C17.6148 124.05 15.6283 118.483 14.1677 112.804C10.9202 100.179 7.82017 87.516 4.86753 74.8163C3.40959 68.5785 2.18252 62.2722 1.17079 55.9454C0.133106 49.4211 3.001 45.5278 9.50725 44.2984C13.3032 43.5837 17.1601 43.174 21.1513 42.6035C21.2648 42.0051 21.39 41.3765 21.5028 40.7456C22.1851 36.9353 24.3403 34.0877 27.9384 32.9337C32.3296 31.451 36.8466 30.3729 41.4335 29.7128C61.6267 27.1436 81.9388 27.6772 102.229 27.8143C103.225 27.8214 104.222 27.7963 105.216 27.7496C105.41 27.7405 105.595 27.5612 105.858 27.4215C105.858 24.9465 105.8 22.4288 105.874 19.9149C105.955 17.1508 106.03 14.3763 106.333 11.631C107.006 5.53678 109.317 2.90655 115.492 2.12682C121.308 1.39258 127.2 1.24432 133.063 0.886297C136.59 0.670573 140.122 0.546877 143.652 0.381836H156.96ZM10.2674 52.2879C10.3446 53.949 10.5047 55.6056 10.7473 57.2506C13.778 71.7253 16.7503 86.2139 19.9567 100.649C21.8535 109.52 25.16 118.029 29.7498 125.85C31.8122 129.313 34.756 131.057 38.7115 131.113C42.7974 131.172 46.8878 131.123 50.9762 131.118C71.7066 131.094 92.4368 131.073 113.167 131.053C121.591 131.053 130.015 131.151 138.439 131.21C144.204 131.249 149.968 131.34 155.732 131.323C158.527 131.388 161.266 130.53 163.527 128.884C166.608 126.577 167.134 124.006 165.3 120.622C164.646 119.468 164.054 118.281 163.524 117.066C158.466 104.815 153.224 92.6342 148.478 80.2646C145.684 72.8072 142.032 65.7006 137.597 59.0896C134.018 53.8316 129.267 50.2105 122.818 49.3392C119.097 48.7513 115.34 48.4317 111.575 48.3823C100.823 48.4882 90.0742 48.8599 79.3244 49.1374C60.4853 49.6227 41.6436 50.0409 22.8103 50.6647C18.7705 50.7986 14.7566 51.6856 10.2674 52.2879ZM167.659 102.702L168.317 102.673C168.317 101.353 168.391 100.029 168.306 98.7148C167.194 81.3341 167.86 63.9767 168.596 46.5979C169.002 36.9924 168.498 27.3419 168.227 17.7168C168.105 13.3543 167.458 12.893 163.104 12.4908C161.779 12.3686 160.449 12.2312 159.122 12.2312C146.483 12.2412 133.844 12.2729 121.206 12.3271C119.681 12.3349 118.158 12.6002 116.594 12.7497C116.594 16.6197 116.554 20.2431 116.609 23.8649C116.643 26.0741 116.966 28.2893 116.907 30.4927C116.803 34.3725 115.415 36.1186 111.6 36.9809C109.14 37.5954 106.619 37.9318 104.084 37.9841C92.1113 37.9334 80.1325 37.3991 68.1687 37.6401C58.2141 37.8429 48.2692 38.7973 38.3353 39.6186C35.7087 39.8357 32.9096 40.1554 30.3582 42.4855C30.8961 42.6011 31.4409 42.6817 31.9893 42.7266C47.6167 42.4377 63.244 42.1391 78.8711 41.8306C92.0555 41.5493 105.239 40.991 118.424 40.9442C128.434 40.9085 137.272 44.4093 143.452 52.5106C147.577 57.8452 151.15 63.585 154.118 69.6428C158.225 78.1912 161.451 87.1625 165.036 95.9585C165.946 98.195 166.787 100.454 167.659 102.702Z" fill="black"/>
</g>
<defs>
<clipPath id="clip0">
<rect width="179" height="141" fill="white" transform="translate(0.777344)"/>
</clipPath>
</defs>
</svg>

<svg xmlns="http://www.w3.org/2000/svg" width="180" height="141" fill="none" viewBox="0 0 180 141"><g clip-path="url(#a)"><path fill="#000" d="M156.96.382c2.743.303 5.493.558 8.229.917 8.878 1.17 13.211 6.058 13.641 15.062.783 16.399-.072 32.76-.677 49.142-.409 11.053.118 22.138.061 33.207-.036 6.636-.037 13.306-.676 19.9-1.367 14.077-9.428 21.405-23.613 21.865-4.651.151-9.314-.014-13.971-.035q-18.289-.086-36.578-.176c-19.514-.118-39.028-.186-58.54-.45a61 61 0 0 1-11.19-1.441c-5.631-1.145-9.651-4.779-12.739-9.397-3.292-4.926-5.279-10.493-6.74-16.172a1676 1676 0 0 1-9.3-37.988 271 271 0 0 1-3.696-18.87C.133 49.42 3 45.527 9.507 44.297c3.796-.714 7.653-1.124 11.644-1.695.114-.598.239-1.227.352-1.857.682-3.81 2.837-6.658 6.435-7.812a76 76 0 0 1 13.496-3.221c20.193-2.57 40.505-2.036 60.795-1.899.996.007 1.993-.018 2.987-.064.194-.01.379-.189.642-.328 0-2.476-.058-4.993.016-7.507.081-2.764.156-5.539.459-8.284.673-6.094 2.984-8.724 9.159-9.504 5.816-.734 11.708-.883 17.571-1.24 3.527-.216 7.059-.34 10.589-.505zM10.267 52.288q.117 2.493.48 4.963c3.031 14.474 6.003 28.963 9.21 43.398a84.8 84.8 0 0 0 9.793 25.201c2.062 3.463 5.006 5.207 8.962 5.263 4.085.059 8.176.01 12.264.005q31.095-.035 62.191-.065c8.424 0 16.848.098 25.272.157 5.765.039 11.529.13 17.293.113a12.74 12.74 0 0 0 7.795-2.439c3.081-2.307 3.607-4.878 1.773-8.262a38 38 0 0 1-1.776-3.556c-5.058-12.251-10.3-24.432-15.046-36.801a102.7 102.7 0 0 0-10.881-21.175c-3.579-5.258-8.33-8.88-14.779-9.75a79 79 0 0 0-11.243-.958c-10.752.106-21.5.478-32.25.755-18.84.486-37.681.904-56.515 1.528-4.04.134-8.053 1.02-12.543 1.623m157.392 50.414.658-.029c0-1.32.074-2.644-.011-3.958-1.112-17.38-.446-34.738.29-52.117.406-9.606-.098-19.256-.369-28.881-.122-4.363-.769-4.824-5.123-5.226-1.325-.122-2.655-.26-3.982-.26q-18.959.015-37.916.096c-1.525.008-3.048.273-4.612.423 0 3.87-.04 7.493.015 11.115.034 2.21.357 4.424.298 6.628-.104 3.88-1.492 5.626-5.307 6.488-2.46.614-4.981.95-7.516 1.003-11.973-.05-23.952-.585-35.915-.344-9.955.203-19.9 1.157-29.834 1.979-2.626.217-5.425.536-7.977 2.867q.808.173 1.631.24 23.442-.432 46.882-.895c13.185-.282 26.368-.84 39.553-.887 10.01-.036 18.848 3.465 25.028 11.567a99.8 99.8 0 0 1 10.666 17.132c4.107 8.548 7.333 17.52 10.918 26.316.91 2.236 1.751 4.495 2.623 6.743"/></g><defs><clipPath id="a"><path fill="#fff" d="M.777 0h179v141h-179z"/></clipPath></defs></svg>
